symbols/web/attach_email/materialsymbolsoutlined/attach_email_wght200grad200_24px.svg

<svg xmlns="http://www.w3.org/2000/svg" height="24" width="24"><path d="m10.925 10.725-8.15-5.25v10q0 .275.163.45.162.175.437.175h9.875v1.65H3.375q-.95 0-1.6-.65-.65-.65-.65-1.625V4.525q0-.975.65-1.625t1.6-.65H18.45q.95 0 1.612.65.663.65.663 1.625v4.65h-1.65v-3.7Zm0-1.725 8.025-5.1H2.875Zm8.15 12.8q-1.625 0-2.725-1.1t-1.1-2.7v-4.55q0-.975.675-1.663.675-.687 1.65-.687.975 0 1.663.687.687.688.687 1.663V18h-1.65v-4.55q0-.3-.2-.5t-.5-.2q-.3 0-.487.2-.188.2-.188.5V18q0 .9.625 1.525.625.625 1.55.625.9 0 1.525-.625.625-.625.625-1.525v-4.05h1.65V18q0 1.6-1.1 2.7t-2.7 1.1ZM2.775 5.475V3.9v12.2-5.925Z"/></svg>

<svg xmlns="http://www.w3.org/2000/svg" height="24" width="24"><path d="M10.925 10.725 2.775 5.475V15.475Q2.775 15.75 2.938 15.925Q3.1 16.1 3.375 16.1H13.25V17.75H3.375Q2.425 17.75 1.775 17.1Q1.125 16.45 1.125 15.475V4.525Q1.125 3.55 1.775 2.9Q2.425 2.25 3.375 2.25H18.45Q19.4 2.25 20.062 2.9Q20.725 3.55 20.725 4.525V9.175H19.075V5.475ZM10.925 9 18.95 3.9H2.875ZM19.075 21.8Q17.45 21.8 16.35 20.7Q15.25 19.6 15.25 18V13.45Q15.25 12.475 15.925 11.787Q16.6 11.1 17.575 11.1Q18.55 11.1 19.238 11.787Q19.925 12.475 19.925 13.45V18H18.275V13.45Q18.275 13.15 18.075 12.95Q17.875 12.75 17.575 12.75Q17.275 12.75 17.088 12.95Q16.9 13.15 16.9 13.45V18Q16.9 18.9 17.525 19.525Q18.15 20.15 19.075 20.15Q19.975 20.15 20.6 19.525Q21.225 18.9 21.225 18V13.95H22.875V18Q22.875 19.6 21.775 20.7Q20.675 21.8 19.075 21.8ZM2.775 5.475V3.9V5.475V15.475Q2.775 15.75 2.775 15.925Q2.775 16.1 2.775 16.1V13.45Q2.775 12.05 2.775 11.112Q2.775 10.175 2.775 10.175Z"/></svg>
